X: 1
T: Chumha Eoghain Rua Ui Neill
M: 4/4
L: 1/8
R: reel
K: Gmaj
E>F G2A2B2 | e3 B d/2B/2G A2 | G2 G2 G4|
e>f g2 f2 g>f | e3 f e/2d/2B/2A/2 B2 | e2 e>f e4|
e>f g2 f2 g>f | e3 f e/2d/2B/2A/2 B2-| B A G>E D4|
